!!!!SEGMENT: pl-cz--iii-882--004_brykner-jerzy--completorium-c-ecce-nunc-benedicite.krn
!!!id: 17xx:864
!!!COM: Brykner, Jerzy
!!!COM-rism: pe30025739
!!!CDT: 1705-1760
!!!CNT: Polish
!!!OTL: Completorium C – Ecce nunc benedicite
!!!PDT:
!!!SMS-siglum: PL-CZ
!!!SMS-shelfmark: III-882
!!!NIFC-rismID: 300033576
!!!URL-scan: http://repozytorium.nifc.pl/skany/pl-cz-nut--iii-882
!!!ONB-nifc: UWAGA: części Completorium: Cum invocarem, In te Domine speravi, Qui habitat, Ecce nunc benedicite, Te lucis ante terminum, In manus tuas, Nunc dimittis. Uwaga: niekompletne partie A, B, vl 1.
!!!SMS-variant:
!!!SMS-altvar:
**kern	**fba	**dynam	**kern	**kern	**kern	**text	**kern	**text	**kern	**text
*part6	*part6	*part6	*part5	*part4	*part3	*part3	*part2	*part2	*part1	*part1
*staff6	*	*	*staff5	*staff4	*staff3	*staff3	*staff2	*staff2	*staff1	*staff1
*I"Organo.	*	*	*I"Violino ʃecundo.	*I"Violino Primo.	*I"[Baſso]	*	*I"[Alto]	*	*I"Canto.	*
*I'org	*	*	*I'vl 2	*I'vl 1	*I'B	*	*I'A	*	*I'S	*
*group3	*	*	*group2	*group2	*group1	*	*group1	*	*group1	*
*clefF4	*	*	*clefG2	*clefG2	*clefF4	*	*clefC3	*	*clefC1	*
*k[f#c#g#]	*	*	*k[f#c#g#]	*k[f#c#g#]	*k[f#c#g#]	*	*k[f#c#g#]	*	*k[f#c#g#]	*
*M4/4	*	*	*M4/4	*M4/4	*M4/4	*	*M4/4	*	*M4/4	*
*met(c)	*	*	*met(c)	*met(c)	*met(c)	*	*met(c)	*	*met(c)	*
=1	=1	=1	=1	=1	=1	=1	=1	=1	=1	=1
*2\right	*	*	*2\right	*2\right	*2\right	*	*2\right	*	*2\right	*
!LO:TX:a:t=Tutti	!	!	!	!	!LO:TX:a:t=P:problem:brak nazwy partii	!	!LO:TX:a:t=P:problem:brak nazwy partii	!	!	!
!LO:TX:b:t=Ecce nunc Benedicte.	!	!	!LO:TX:b:t=Ecce nunc benedicte.	!LO:TX:a:t=P:problem:brak partii - urwane strony źródła	!	!	!	!	!	!
!LO:TX:a:t=P:problem:brak oznaczenia tempa	!	!	!LO:TX:a:t=P:problem:brak oznaczenia tempa	!LO:TX:a:t=P:problem:brak oznaczenia tempa	!LO:TX:a:t=P:problem:brak oznaczenia tempa	!	!LO:TX:a:t=P:problem:brak oznaczenia tempa	!	!LO:TX:a:t=P:problem:brak oznaczenia tempa	!
4A\	.	.	4ccc#\	1ryy	4A\	Ecce	4a\	Ec-	4cc#\	Ec-
8E\L	.	.	8bb\L	.	8ryy	.	8g#\	-ce	8b\	-ce
8A\J	.	.	8ccc#\J	.	8A\	nunc	8a\	nunc	8cc#\	nunc
8B\L	6	.	16ddd\LL	.	8B\	be-	8g#\	be-	8dd\	be-
.	.	.	16bb\	.	.	.	.	.	.	.
8E\J	.	.	16gg#\	.	8E\	-ne-	16a\LL	-ne	16cc#\LL	-ne
.	.	.	16bb\JJ	.	.	.	16b\JJ	.	16dd\JJ	.
8c#\L	6	.	8ee\L	.	8c#\	-di-	8a\	di-	8ee\	di-
16B\L	.	.	8aa\J	.	16B\	-ci-	16a\	-ci-	16dd\	-ci-
16A\JJ	.	.	.	.	16A\	-te	16a\	-te	16cc#\	-te
=2	=2	=2	=2	=2	=2	=2	=2	=2	=2	=2
4B\	7	.	4aa\	1ryy	4B\	Do-	(4a\	Do-	4.dd\	Do-
4E\	7	.	4gg#\	.	8E\	.	8g#\)	.	.	.
.	.	.	.	.	8E\	-mi-	8g#\	-mi-	8dd\	-mi-
8A\L	.	.	8aa\L	.	8A\	-num	8a\	-num	8cc#\	-num
8c#\	.	.	8aa\	.	8c#\L	om-	8a\L	om-	8dd\L	om-
8B\	6	.	8gg#\	.	8B\J	.	8g#\J	.	8cc#\J	.
8A\J	.	.	8aa\J	.	8A\	-nes	8a\	-nes	8b\	-nes
=3	=3	=3	=3	=3	=3	=3	=3	=3	=3	=3
8e\L	.	.	8gg#\L	1ryy	8e\	ser-	8g#\	ser-	8b\	ser-
8E\J	.	.	8gg#\J	.	8E\	-vi	8g#\	-vi	8b\	-vi
8r	.	.	8r	.	8r	.	8r	.	8r	.
8E\L	.	.	8gg#\	.	8E\L	om-	8g#\L	om-	8ee\L	om-
8F#\	.	.	8aa\L	.	8F#\J	.	8a\	.	8dd\J	.
8G#\J	.	.	8bb\J	.	8G#\	-nes	8b\J	.	16cc#\LL	-nes
.	.	.	.	.	.	.	.	.	16b\JJ	.
8A\L	.	.	8ccc#\L	.	8A\L	ser-	8e\L	.	8cc#\L	ser-
16G#\L	.	.	16bb\L	.	16G#\L	.	8f#\J	.	16b\L	.
16F#\JJ	.	.	16aa\JJ	.	16F#\JJ	.	.	.	16a\JJ	.
!	!	!	!	!	!LO:LB:g=original	!	!LO:LB:g=original	!	!LO:LB:g=original	!
=4	=4	=4	=4	=4	=4	=4	=4	=4	=4	=4
8E\L	.	.	8gg#\L	1ryy	8E\L	.	8g#\	.	8b\	.
8C#\	6	.	8aa\J	.	8C#\	.	4a\	.	4ee\	.
8F#\	6	.	16aa\LL	.	8F#\	.	.	.	.	.
.	.	.	16ddd\	.	.	.	.	.	.	.
8B\J	.	.	16ccc#\	.	8B\J	.	8b\	-nes	4dd\	.
.	.	.	16ddd\JJ	.	.	.	.	.	.	.
!LO:LB:g=original	!	!	!	!	!	!	!	!	!	!
8E\L	.	.	8gg#\L	.	4E\	.	8g#\L	ser-	.	.
8G#\	.	.	16aa\L	.	.	.	8e\J	.	16cc#\LL	.
.	.	.	16bb\JJ	.	.	.	.	.	16b\JJ	.
8A\	.	.	8ccc#\L	.	8A\	.	8a\	.	8cc#\	.
8D\J	.	.	16bb\L	.	8D\	-vi	8a\	-vi	8dd\	-vi
.	.	.	16aa\JJ	.	.	.	.	.	.	.
=5	=5	=5	=5	=5	=5	=5	=5	=5	=5	=5
2E\	4	.	4aa\	1ryy	4.E\	Do-	4a\	Do-	4cc#\	Do-
.	3	.	4gg#\	.	.	.	8g#\	.	8.b\	.
!	!	!	!	!	!	!	!LO:SIC:l:s=mi:v	!	!	!
.	.	.	.	.	8E\	-mi-	8g#\	-ni-	.	.
.	.	.	.	.	.	.	.	.	16b\	-mi-
8AA'/L	.	.	8aa\L	.	4AA/	-num	4a\	-ni	4a\	-ni
16AA'/L	.	.	16a\L	.	.	.	.	.	.	.
16BB'/JJ	.	.	16b\JJ	.	.	.	.	.	.	.
8C#/L	.	.	8cc#\L	.	4r	.	4r	.	4r	.
16C#/L	.	.	16cc#\L	.	.	.	.	.	.	.
16D/JJ	.	.	16dd\JJ	.	.	.	.	.	.	.
!	!	!	!LO:LB:g=original	!	!	!	!	!	!	!
=6	=6	=6	=6	=6	=6	=6	=6	=6	=6	=6
8E\L	.	.	8ee\L	1ryy	00r	.	00r	.	1r	.
16F#\L	.	.	16ff#\L	.	.	.	.	.	.	.
16G#\JJ	.	.	16gg#\JJ	.	.	.	.	.	.	.
8A\L	.	.	8aa\L	.	.	.	.	.	.	.
8C#\J	.	.	8cc#\J	.	.	.	.	.	.	.
8F#\L	.	.	8ff#\L	.	.	.	.	.	.	.
16E\L	.	.	16ee\L	.	.	.	.	.	.	.
16D\JJ	.	.	16dd\JJ	.	.	.	.	.	.	.
!LO:TX:a:t=P:problem:mixed beam	!	!	!LO:TX:a:t=P:problem:mixed beam	!	!	!	!	!	!	!
8E\L	.	.	8ee\L	.	.	.	.	.	.	.
8EE/J	.	.	8e/J	.	.	.	.	.	.	.
=7	=7	=7	=7	=7	=7	=7	=7	=7	=7	=7
!LO:TX:a:t=P:problem:mixed beam	!	!	!	!	!	!	!	!	!	!
8AA/L	.	.	8a/L	1ryy	.	.	.	.	4r	.
!LO:TX:a:t=ʃ.	!	!LO:DY:b:t=f&colon;	!	!	!	!	!	!	!	!
8A\	.	f	8cc#/	.	.	.	.	.	.	.
8A\	.	.	8cc#/	.	.	.	.	.	8r	.
8A\J	.	.	8cc#/J	.	.	.	.	.	8ee\	Qui
8c#\L	.	.	8ee\L	.	.	.	.	.	4a\	sta-
8c#\	6	.	8ee\	.	.	.	.	.	.	.
8A\	.	.	8cc#\	.	.	.	.	.	16a\LL	-tis
.	.	.	.	.	.	.	.	.	16cc#\JJ	.
8A\J	.	.	8cc#\J	.	.	.	.	.	16b\LL	in
.	.	.	.	.	.	.	.	.	16a\JJ	.
=8	=8	=8	=8	=8	=8	=8	=8	=8	=8	=8
8G#\L	6	.	8b\L	1ryy	.	.	.	.	8b\	do-
8G#\J	.	.	8b\	.	.	.	.	.	8e/	-mo
!LO:LB:g=original	!	!	!	!	!	!	!	!	!	!
8G#\L	.	.	8ee\	.	.	.	.	.	8r	.
8E\J	.	.	8ee\J	.	.	.	.	.	8ee\	in
8E\L	.	.	8b\L	.	.	.	.	.	8g#\	do-
8E\	.	.	8b\	.	.	.	.	.	16a\LL	-mo
.	.	.	.	.	.	.	.	.	16b\JJ	.
!	!	!	!	!	!	!	!	!	!LO:LB:g=original	!
!	!	!	!	!	!	!	!	!	!LO:TX:a:t=P:problem:mixed beam	!
8G#\	.	.	8b\	.	.	.	.	.	8e/L	Do-
8E\J	.	.	8dd\J	.	.	.	.	.	[8dd\J	.
=9	=9	=9	=9	=9	=9	=9	=9	=9	=9	=9
8A\L	.	.	8dd\L	1ryy	.	.	.	.	8dd\]	.
8A\	.	.	8cc#\	.	.	.	.	.	8cc#\	-mi-
8A\	.	.	8cc#\	.	.	.	.	.	8cc#\	-ni
8A\J	.	.	8cc#\J	.	.	.	.	.	8r	.
8F#\L	.	.	8cc#\L	.	.	.	.	.	8cc#\	in
8F#\	.	.	8cc#\	.	.	.	.	.	16a/	a-
.	.	.	.	.	.	.	.	.	16g#/	-trys
8A\	6	.	8ff#\	.	.	.	.	.	8ff#\	do-
8A\J	5	.	8ee\J	.	.	.	.	.	8ee\	-mûs
=10	=10	=10	=10	=10	=10	=10	=10	=10	=10	=10
8B\L	#	.	8dd#X\L	1ryy	00r	.	0r	.	16dd#X\LL	De-
.	.	.	.	.	.	.	.	.	16cc#\JJ	.
8B\	.	.	8dd#\	.	.	.	.	.	4b\	.
8G#\	6	.	8ee\	.	.	.	.	.	.	.
8A\J	.	.	8ee\J	.	.	.	.	.	8cc#\	-i
!LO:TX:a:t=P:problem:mixed beam	!	!	!	!	!	!	!	!	!	!
8B\L	.	.	4ee\	.	.	.	.	.	4g#/	no-
8B\	4	.	.	.	.	.	.	.	.	.
8BB/	#	.	4dd#X\	.	.	.	.	.	4f#T/	.
8BB/J	.	.	.	.	.	.	.	.	.	.
=11	=11	=11	=11	=11	=11	=11	=11	=11	=11	=11
!	!	!LO:DY:b:t=f.	!LO:TX:a:t=P:problem:mixed beam	!	!	!	!	!	!	!
8E'\L	.	f	8ee\L	1ryy	.	.	.	.	4e/	-stri
16E'\L	.	.	16e/L	.	.	.	.	.	.	.
16F#'\JJ	.	.	16f#/JJ	.	.	.	.	.	.	.
8G#\L	.	.	8g#/L	.	.	.	.	.	4r	.
16G#\L	.	.	16g#/L	.	.	.	.	.	.	.
16A\JJ	.	.	16a/JJ	.	.	.	.	.	.	.
8B\L	.	.	8b\L	.	.	.	.	.	2r	.
16c#\L	.	.	16cc#\L	.	.	.	.	.	.	.
!	!	!	!LO:TX:a:t=#	!	!	!	!	!	!	!
16d#X\JJ	.	.	16dd#y\JJ	.	.	.	.	.	.	.
!	!	!	!LO:LB:g=original	!	!	!	!	!	!	!
!	!	!	!LO:TX:a:t=P:problem:mixed beam	!	!	!	!	!	!	!
8e\L	.	.	8ee\L	.	.	.	.	.	.	.
8G#\J	.	.	8g#/J	.	.	.	.	.	.	.
!LO:LB:g=original	!	!	!	!	!	!	!	!	!	!
=12	=12	=12	=12	=12	=12	=12	=12	=12	=12	=12
8c#\L	.	.	8cc#\L	1ryy	.	.	2r	.	00r	.
16B\L	.	.	16b\L	.	.	.	.	.	.	.
16A\JJ	.	.	16a\JJ	.	.	.	.	.	.	.
!LO:TX:a:t=P:problem:mixed beam	!	!	!LO:TX:a:t=P:problem:mixed beam	!	!	!	!	!	!	!
8B\L	.	.	8b\L	.	.	.	.	.	.	.
8BB/J	.	.	8B/J	.	.	.	.	.	.	.
!	!	!LO:DY:b:t=f&colon;	!LO:TX:a:t=P:problem:mixed beam	!	!	!	!	!	!	!
16E\LL	.	f	16e/LL	.	.	.	4r	.	.	.
16e\	.	.	16ee\	.	.	.	.	.	.	.
16B\	.	.	16b\	.	.	.	.	.	.	.
16G#\JJ	.	.	16g#\JJ	.	.	.	.	.	.	.
8E\L	.	.	8e/L	.	.	.	8r	.	.	.
8E\J	.	.	8b/J	.	.	.	16b\LL	In	.	.
.	.	.	.	.	.	.	16g#\JJ	.	.	.
=13	=13	=13	=13	=13	=13	=13	=13	=13	=13	=13
8E\L	.	.	8b\L	1ryy	.	.	8.e\	noc-	.	.
8E\	.	.	8b\	.	.	.	.	.	.	.
.	.	.	.	.	.	.	16e\	-ti-	.	.
8G#\	6	.	8b\	.	.	.	8e\	-bus	.	.
8G#\J	.	.	8b\J	.	.	.	8e\	ex-	.	.
!LO:TX:a:t=P:problem:mixed beam	!	!	!	!	!	!	!	!	!	!
8A\L	.	.	8cc#\L	.	.	.	8cc#\	-tol-	.	.
8A\	.	.	8cc#\	.	.	.	16dd\	-li-	.	.
.	.	.	.	.	.	.	16cc#\	-te	.	.
8B\	#	.	8b\	.	.	.	8b\	ma-	.	.
8BB/J	.	.	8a\J	.	.	.	8a\	-nus	.	.
!	!	!	!	!	!	!	!LO:LB:g=original	!	!	!
=14	=14	=14	=14	=14	=14	=14	=14	=14	=14	=14
8E\L	.	.	8a/L	1ryy	00r	.	8a\	ves-	.	.
8E\	.	.	8g#/	.	.	.	8g#\	-tras	.	.
8E\	.	.	8g#/	.	.	.	8r	.	.	.
8E\J	.	.	8g#/J	.	.	.	16g#\	ma-	.	.
.	.	.	.	.	.	.	16a\	-nus	.	.
8G#\L	6	.	8b\L	.	.	.	8b\L	ves-	.	.
8G#\	.	.	8b\	.	.	.	8e\J	.	.	.
8G#\	.	.	8b\	.	.	.	8e\	-tras	.	.
8G#\J	.	.	8dd\J	.	.	.	8d\	in	.	.
=15	=15	=15	=15	=15	=15	=15	=15	=15	=15	=15
8A\L	.	.	8dd\L	1ryy	.	.	8d\	san-	.	.
8A\J	.	.	8cc#\J	.	.	.	8c#\	-cta	.	.
16r	.	.	16cc#\LL	.	.	.	4r	.	.	.
16A\LL	.	.	16aa\	.	.	.	.	.	.	.
16E\	.	.	16ee\	.	.	.	.	.	.	.
16C#\JJ	.	.	16cc#\JJ	.	.	.	.	.	.	.
8AA/L	.	.	8a\L	.	.	.	8r	.	.	.
8AA/	.	.	8cc#\	.	.	.	8a\	&	.	.
8BB/	6	.	8b\	.	.	.	8g#\	be-	.	.
8BB/J	5	.	8a\J	.	.	.	8f#\	-ne	.	.
!LO:PB:g=original	!	!	!	!	!	!	!	!	!	!
=16	=16	=16	=16	=16	=16	=16	=16	=16	=16	=16
8C#/L	#	.	8g#/L	1ryy	.	.	8.e#X\	di-	0r	.
8C#/	.	.	8g#/	.	.	.	.	.	.	.
.	.	.	.	.	.	.	16d\	-ci-	.	.
8C#/	.	.	8g#/	.	.	.	4c#\	-te	.	.
8C#/J	.	.	8b/J	.	.	.	.	.	.	.
8E#X\L	6	.	8b/L	.	.	.	8r	.	.	.
8E#\	.	.	8b/	.	.	.	8b\	&	.	.
8E#\	.	.	8b/	.	.	.	8b\	be-	.	.
8E#\J	.	.	8b/J	.	.	.	16a\LL	-ne	.	.
.	.	.	.	.	.	.	16g#\JJ	.	.	.
=17	=17	=17	=17	=17	=17	=17	=17	=17	=17	=17
8F#\L	.	.	8a\L	1ryy	.	.	8a\	di-	.	.
8G#\	6|	.	8b\	.	.	.	8e#X\	-ci-	.	.
8A\	6	.	8cc#\	.	.	.	8f#\L	-te	.	.
8B\J	.	.	8dd\J	.	.	.	8g#\J	.	.	.
!LO:TX:a:t=P:problem:mixed beam	!	!	!	!	!	!	!LO:LB:g=original	!	!	!
8c#\L	.	.	4a/	.	.	.	4f#\	Do-	.	.
8c#\	4	.	.	.	.	.	.	.	.	.
8C#/	#	.	4g#/	.	.	.	8.e#X\	.	.	.
8C#/J	.	.	.	.	.	.	.	.	.	.
.	.	.	.	.	.	.	16f#\	-mi-	.	.
!	!	!	!LO:LB:g=original	!	!	!	!	!	!	!
=18	=18	=18	=18	=18	=18	=18	=18	=18	=18	=18
!	!	!	!	!	!	!	!	!	!LO:TX:a:t=P:problem:brak t. 18	!
8F#\L	.	.	8r	1ryy	1r	.	4g#\	-num.	1ryy	.
16F#`\L	.	.	16f#/LL	.	.	.	.	.	.	.
16G#`\JJ	.	.	16g#/JJ	.	.	.	.	.	.	.
8A`\L	.	.	8a/L	.	.	.	4r	.	.	.
16A`\L	.	.	16a/L	.	.	.	.	.	.	.
16B`\JJ	.	.	16b/JJ	.	.	.	.	.	.	.
8c#\L	.	.	8cc#\L	.	.	.	2r	.	.	.
16d#X\L	.	.	16dd#X\L	.	.	.	.	.	.	.
16e#X\JJ	.	.	16ff#X\JJ	.	.	.	.	.	.	.
!	!	!	!LO:TX:a:t=P:problem:mixed beam	!	!	!	!	!	!	!
8f#\L	.	.	8ff#\L	.	.	.	.	.	.	.
8A\J	.	.	8a/J	.	.	.	.	.	.	.
=19	=19	=19	=19	=19	=19	=19	=19	=19	=19-zz	=19
!	!	!	!	!	!	!	!	!	!LO:TX:a:t=P:problem:brak kreski taktowej	!
8d\L	.	.	8dd\L	1ryy	2r	.	2r	.	2r	.
16c#\L	.	.	16cc#\L	.	.	.	.	.	.	.
16B\JJ	.	.	16b\JJ	.	.	.	.	.	.	.
!LO:TX:a:t=P:problem:mixed beam	!	!	!LO:TX:a:t=P:problem:mixed beam	!	!	!	!	!	!	!
8c#\L	.	.	8cc#\L	.	.	.	.	.	.	.
8C#/J	.	.	8c#/J	.	.	.	.	.	.	.
!	!	!	!LO:TX:a:t=P:problem:mixed beam	!	!	!	!	!	!	!
8F#\L	.	.	8f#/L	.	8r	.	8r	.	8r	.
!LO:TX:a:t=Tutti	!	!	!	!	!	!	!	!	!	!
8F#\	.	.	8aa\	.	4F#\	Be-	4a\	Be-	4ff#\	Be-
8F#\	.	.	8aa\	.	.	.	.	.	.	.
8G#\J	6|	.	8bb\J	.	8G#\	-ne-	8b\	-ne-	8ee#X\	-ne-
!LO:LB:g=original	!	!	!	!	!	!	!	!	!LO:LB:g=original	!
=20	=20	=20	=20	=20	=20	=20	=20	=20	=20	=20
!	!	!	!	!	!LO:TX:a:t=P:problem:belka i chorągiewka	!	!	!	!	!
8A\L	6	.	8ccc#\L	1ryy	8A\L	-di-	8cc#\	-di-	8ff#\	-di-
!	!	!	!	!	!LO:TX:a:t=P:problem:belka i chorągiewka	!	!	!	!	!
8G#\	.	.	8bb\	.	8G#\J	-cat	8b\	-cat	8cc#\	-cat
8A\	.	.	8ccc#\	.	8A\	.	8cc#\	ti-	8ff#\	ti-
8F#\J	.	.	8aa\J	.	8F#\	te	8a\	-bi	8ee\	-bi
8B\L	.	.	16ddd\LL	.	8B\	Do-	8b\	Do-	8dd\	Do-
.	.	.	16ddd\	.	.	.	.	.	.	.
8G#\	6|	.	16ccc#\	.	8G#\	-mi-	8b\	-mi-	8b\	-mi-
.	.	.	16bb\JJ	.	.	.	.	.	.	.
8A\	6	.	16ccc#\LL	.	8A\	-nus	8a\	-nus	8cc#,\	-nus
.	.	.	16ccc#\	.	.	.	.	.	.	.
8F#\J	.	.	16bb\	.	8F#\	ex	8f#\	ex	8a\	ex
.	.	.	16aa\JJ	.	.	.	.	.	.	.
=21	=21	=21	=21	=21	=21	=21	=21	=21	=21	=21
4G#\	x 7	.	8bb\	1ryy	4G#\	ʃi-	4f#\	ʃi-	2b\	ʃi-
.	.	.	4bb\	.	.	.	.	.	.	.
4C#/	7 #	.	.	.	4C#/	.	4e#X\	.	.	.
.	.	.	16aa\LL	.	.	.	.	.	.	.
.	.	.	16gg#\JJ	.	.	.	.	.	.	.
!	!	!	!	!	!LO:LB:g=original	!	!	!	!	!
8F#\L	.	.	8aa\L	.	8F#\	-on	8f#\	-on	8a\	-on
8A\	.	.	8ee\	.	4A\	Be-	8e#\L	be-	4cc#\	be-
8A\	.	.	8aa\	.	.	.	8a\J	.	.	.
8B\J	6	.	8gg#\J	.	8B\	-ne-	8g#\	-ne-	8dd\	-ne
=22	=22	=22	=22	=22	=22	=22	=22	=22	=22	=22
!	!	!	!	!	!LO:TX:a:t=P:problem:belka i chorągiewka	!	!	!	!	!
8c#\L	6	.	16aa\LL	1ryy	8c#\L	-di-	8a\	-di-	8ee\	di-
.	.	.	16aa\	.	.	.	.	.	.	.
!	!	!	!	!	!LO:TX:a:t=P:problem:belka i chorągiewka	!	!	!	!	!
8B\	.	.	16aa\	.	8B\J	.	8e\	-cat	8dd\	-cat
.	.	.	16aa\JJ	.	.	.	.	.	.	.
!	!	!	!	!	!	!	!LO:LB:g=original	!	!	!
8c#\	.	.	16aa\LL	.	8c#\	-cat	8a\	ti-	8ee\	ti-
.	.	.	16aa\	.	.	.	.	.	.	.
8A\J	.	.	16aa\	.	8A\	te	8a\	-bi	8cc#\	-bi
.	.	.	16aa\JJ	.	.	.	.	.	.	.
8d\L	.	.	16aa\LL	.	8d\	Do-	8a\	Do-	8ff#\	Do-
.	.	.	16aa\	.	.	.	.	.	.	.
8B\	.	.	16gg#\	.	8B\	-mi-	8g#\	-mi-	8dd\	-mi-
.	.	.	16gg#\JJ	.	.	.	.	.	.	.
8c#\	6	.	16aa\LL	.	8c#\	-nus	8a\	-nus	8ee\	-nus
.	.	.	16aa\	.	.	.	.	.	.	.
8A\J	.	.	16bb\	.	8A\	ex	8a\	ex	8cc#\	ex
.	.	.	16aa\JJ	.	.	.	.	.	.	.
!	!	!	!LO:LB:g=original	!	!	!	!	!	!	!
=23	=23	=23	=23	=23	=23	=23	=23	=23	=23	=23
4B\	7	.	4aa\	1ryy	4B\	ʃi-	4a\	ʃi-	2dd\	ʃi-
4E\	7	.	4aa\	.	4E\	.	4g#\	.	.	.
8A\L	.	.	8aa\L	.	8A\	-on	8a\	-on,	8cc#\	-on
8A\J	.	.	8aa\J	.	8A\	qui	8a\	qui	8cc#\	qui
!	!	!	!	!	!	!	!	!	!LO:LB:g=original	!
8c#\L	6	.	8aa\L	.	8c#\	fe-	8a\	fe-	8ee\	fe-
16B\L	.	.	16bb\L	.	16B\LL	-cit	8a\	-cit	16dd\LL	-cit
16A\JJ	.	.	16ccc#\JJ	.	16A\JJ	.	.	.	16cc#\JJ	.
=24	=24	=24	=24	=24	=24	=24	=24	=24	=24	=24
4d\	.	.	4ddd\	1ryy	4d\	cae-	4a\	cae-	4ff#\	cae-
8d\L	.	.	8ddd\L	.	8d\	-lum	8a\	-lum	8ff#\	-lum
8B\J	.	.	8ddd\J	.	8B\	&	8b\	&	8dd\	&
8G#\L	6	.	8bb\L	.	8G#\	ter-	8b\	ter-	8b\	ter-
8E\J	.	.	8bb\J	.	8E\	-ram	8g#\	-ram	8b\	-ram
8r	.	.	8r	.	8r	.	8r	.	8r	.
8E\	.	.	8bb\	.	8E\	&	8g#\	&	8b\	&
!	!	!	!	!	!LO:LB:g=original	!	!	!	!	!
=25	=25	=25	=25	=25	=25	=25	=25	=25	=25	=25
8C#/L	6	.	8ccc#\L	1ryy	8C#/	ter-	8a\	ter-	8cc#\	ter-
8AA/J	.	.	8ccc#\J	.	8AA/	-ram	8a\	-ram	8cc#\	-ram
8r	.	.	8r	.	8r	.	8r	.	8r	.
8A\	.	.	8ccc#\	.	8A\	cae-	8a\	cae-	8cc#\	cae-
!LO:LB:g=original	!	!	!	!	!	!	!	!	!	!
8F#\L	6	.	8ddd\L	.	8F#\	-lum	8a\	-lum	8dd\	-lum
8A\J	.	.	8ccc#\	.	8A\	&	8a\	&	8ee\	&
!	!	!	!	!	!	!	!LO:PB:g=original	!	!	!
[4D\	.	.	8ddd\	.	[4D\	ter-	8a\L	ter-	8ff#\L	ter-
.	.	.	8ccc#\J	.	.	.	16b\L	.	8dd\J	.
.	.	.	.	.	.	.	16a\JJ	.	.	.
=26	=26	=26	=26	=26	=26	=26	=26	=26	=26	=26
4D\]	4 2	.	4bb\	1ryy	4D\]	.	4g#\	.	4b\	.
8C#/L	6	.	2ccc#\	.	8C#\L	.	2a\	.	2cc#\	.
8D/J	.	.	.	.	8D\J	.	.	.	.	.
[2E\	3	.	.	.	[2E\	.	.	.	.	.
.	4	.	8bb\L	.	.	.	8g#\L	.	8b\L	.
.	.	.	8aa\J	.	.	.	8f#\J	.	8a\J	.
=27	=27	=27	=27	=27	=27	=27	=27	=27	=27	=27
2E\]	4	.	2bb\	1ryy	2E\]	.	2g#\	.	2b\	.
.	3	.	.	.	.	.	.	.	.	.
!LO:TX:a:t=P:problem:mixed beam	!	!	!LO:TX:a:t=P:problem:mixed beam	!	!	!	!	!	!	!
8A\L	.	.	8aa\L	.	4AA/	-ram	4a\	-ram	4a\	-ram.
16AA`/L	.	.	16a/L	.	.	.	.	.	.	.
16BB`/JJ	.	.	16b/JJ	.	.	.	.	.	.	.
8C#`/L	.	.	8cc#\L	.	4r	.	4r	.	4r	.
16C#`/L	.	.	16cc#\L	.	.	.	.	.	.	.
16D`/JJ	.	.	16dd\JJ	.	.	.	.	.	.	.
!	!	!	!	!	!	!	!	!	!LO:LB:g=original	!
=28	=28	=28	=28	=28	=28	=28	=28	=28	=28	=28
8E\L	.	.	8ee\L	1ryy	00r	.	00r	.	00r	.
16F#\L	.	.	16ff#\L	.	.	.	.	.	.	.
16G#\JJ	.	.	16gg#\JJ	.	.	.	.	.	.	.
!LO:N:vis=8	!	!	!	!	!	!	!	!	!	!
4A\L	.	.	8aa\L	.	.	.	.	.	.	.
.	.	.	8cc#\J	.	.	.	.	.	.	.
!LO:N:vis=8	!	!	!	!	!	!	!	!	!	!
4C#\J	.	.	8ff#\L	.	.	.	.	.	.	.
.	.	.	16ee\L	.	.	.	.	.	.	.
.	.	.	16dd\JJ	.	.	.	.	.	.	.
!	!	!	!LO:TX:a:t=P:problem:mixed beam	!	!	!	!	!	!	!
8F#\L	.	.	8ee\L	.	.	.	.	.	.	.
16E\L	.	.	8e/J	.	.	.	.	.	.	.
16D\JJ	.	.	.	.	.	.	.	.	.	.
!	!	!	!LO:LB:g=original	!	!	!	!	!	!	!
=29	=29	=29	=29	=29	=29	=29	=29	=29	=29	=29
!LO:TX:a:t=P:problem:mixed beam	!	!	!	!	!	!	!	!	!	!
8AA/L	.	.	8a/L	1ryy	.	.	.	.	.	.
16A\L	.	.	16a/L	.	.	.	.	.	.	.
16B\JJ	.	.	16b/JJ	.	.	.	.	.	.	.
16A\LL	.	.	16a/LL	.	.	.	.	.	.	.
16Gn\	.	.	16gn/	.	.	.	.	.	.	.
16F#\	.	.	16f#/	.	.	.	.	.	.	.
16E\JJ	.	.	16e/JJ	.	.	.	.	.	.	.
8D\L	.	.	8d/L	.	.	.	.	.	.	.
!LO:TX:a:t=ʃ.	!	!LO:DY:b:t=f.	!	!	!	!	!	!	!	!
8D\	.	f	8a/	.	.	.	.	.	.	.
8D\	.	.	8a/	.	.	.	.	.	.	.
8D\J	.	.	8a/J	.	.	.	.	.	.	.
=30	=30	=30	=30	=30	=30	=30	=30	=30	=30	=30
8D\L	6 4n	.	8b/L	1ryy	.	.	.	.	.	.
8D\	.	.	8b/	.	.	.	.	.	.	.
8D\	5 3	.	8a/	.	.	.	.	.	.	.
8D\J	.	.	8a/J	.	.	.	.	.	.	.
8C#/L	6	.	8ee\L	.	.	.	.	.	.	.
8C#/	.	.	8ee\	.	.	.	.	.	.	.
8C#/	.	.	8ee\	.	.	.	.	.	.	.
8C#/J	.	.	8ee\J	.	.	.	.	.	.	.
!LO:LB:g=original	!	!	!	!	!	!	!	!	!	!
=31	=31	=31	=31	=31	=31	=31	=31	=31	=31	=31
8D/L	.	.	8ee\L	1ryy	.	.	.	.	.	.
8D/	.	.	8ggn\	.	.	.	.	.	.	.
8D/	4	.	8gg\	.	.	.	.	.	.	.
.	3	.	.	.	.	.	.	.	.	.
8D/J	.	.	8ff#\J	.	.	.	.	.	.	.
8BB/L	.	.	8ff#\L	.	.	.	.	.	.	.
8BB/	.	.	8ff#\	.	.	.	.	.	.	.
8D/	6	.	8ff#\	.	.	.	.	.	.	.
8D/J	.	.	8ff#\J	.	.	.	.	.	.	.
=32	=32	=32	=32	=32	=32	=32	=32	=32	=32	=32
8E\L	.	.	8ggn\L	1ryy	1r	.	1r	.	1r	.
8E\	.	.	8ee\	.	.	.	.	.	.	.
8E\	.	.	8cc#\	.	.	.	.	.	.	.
8E\J	.	.	8cc#\J	.	.	.	.	.	.	.
8E\L	4# 2	.	8cc#\L	.	.	.	.	.	.	.
8E\J	.	.	8cc#\	.	.	.	.	.	.	.
8D/L	6	.	8dd\	.	.	.	.	.	.	.
8BB/J	.	.	8dd\J	.	.	.	.	.	.	.
=33	=33	=33	=33	=33	=33-zz	=33	=33-zz	=33	=33-zz	=33
!	!	!	!	!	!LO:TX:a:t=P:problem:brak kreski taktowej	!	!LO:TX:a:t=P:problem:brak kreski taktowej	!	!LO:TX:a:t=P:problem:brak kreski taktowej	!
4F#\	4	.	8cc#\L	1ryy	2r	.	2r	.	2r	.
.	.	.	8cc#\	.	.	.	.	.	.	.
4FF#/	#	.	8cc#\	.	.	.	.	.	.	.
.	.	.	8cc#\J	.	.	.	.	.	.	.
4BB/	.	.	8b\L	.	4r	.	4r	.	4r	.
.	.	.	16dd\L	.	.	.	.	.	.	.
.	.	.	16ff#\JJ	.	.	.	.	.	.	.
!LO:TX:a:t=T.	!	!	!	!	!	!	!	!	!	!
8BB/L	.	.	8bb\L	.	8BB/	ʃi-	8f#\	ʃi-	8dd\	ʃi-
8BB/J	.	.	8bb\J	.	8BB/	-cut	8f#\	-cut	8dd\	-cut
=34	=34	=34	=34	=34	=34	=34	=34	=34	=34	=34
8F#\L	.	.	16aa#X\LL	1ryy	8F#\	e-	8a#X\	e-	8cc#\	e-
.	.	.	16bb\	.	.	.	.	.	.	.
8F#\	.	.	16ccc#\	.	8F#\	-rat	8a#\	-rat	8cc#\	-rat
.	.	.	16bb\JJ	.	.	.	.	.	.	.
!	!	!	!LO:LB:g=original	!	!	!	!	!	!	!
8E\	4# 2	.	16aa#X\LL	.	8E\	in	8a#\	in	8cc#\	in
.	.	.	16gg#\	.	.	.	.	.	.	.
8E\J	.	.	16ff#\	.	8E\	prin-	8a#\	prin-	8cc#\	prin-
.	.	.	16ee\JJ	.	.	.	.	.	.	.
!LO:TX:a:t=P:problem:mixed beam	!	!	!	!	!	!	!	!	!	!
8D/L	6	.	8dd\L	.	8.D/	-ci-	8b\	-ci-	8.dd\	-ci-
8C#/	.	.	16ee\L	.	.	.	8f#\	-pi-	.	.
.	.	.	16ff#\JJ	.	16C#/	-pi-	.	.	16ee\	-pi-
8BB/	.	.	8ggn\L	.	8BB/	-o	8b\	-o	8ff#\	-o
8B\J	.	.	8gg\J	.	8B\	&	8b\	&	8dd\	&
!	!	!	!	!	!LO:LB:g=original	!	!LO:LB:g=original	!	!	!
=35	=35	=35	=35	=35	=35	=35	=35	=35	=35	=35
8Gn\L	.	.	8bb\L	1ryy	8G#\L	nunc	8b\	nunc	8dd\	nunc
8F#\J	6	.	8aa\J	.	8F#\J	&	8a\	&	8dd\	&
4F#\	7	.	4ggn\	.	4E\	sem-	4g#\	sem-	8dd\L	sem-
.	6	.	.	.	.	.	.	.	8cc#\J	.
4E\	.	.	4ff#\	.	4D\	-per	4a\	-per	2dd\	.
8d\L	.	.	8aa\L	.	8d\L	.	8a\	nunc	.	.
8c#\J	.	.	8aa\J	.	8c#\J	.	8a\	&	.	.
=36	=36	=36	=36	=36	=36	=36	=36	=36	=36	=36
!	!	!	!	!	!LO:SIC:l:s=nunc:v	!	!	!	!	!
4B\	6|	.	4ddd\	1ryy	4B\	nc	4f#\	sem-	4cc#\	-per
4A\	.	.	8ccc#\L	.	4A\	&	4a\	-per	8b\	&
.	.	.	8bb\J	.	.	.	.	.	8ee\	in
!LO:LB:g=original	!	!	!	!	!	!	!	!	!LO:LB:g=original	!
2F#\	7	.	2aa\	.	2F#\	sem-	2a\	sem-	8ee\	sae-
.	6|	.	.	.	.	.	.	.	16a\	-cu-
.	.	.	.	.	.	.	.	.	16a\	-la
.	.	.	.	.	.	.	.	.	8ee\	sae-
.	.	.	.	.	.	.	.	.	16dd\LL	-cu-
.	.	.	.	.	.	.	.	.	16cc#\JJ	.
=37	=37	=37	=37	=37	=37	=37	=37	=37	=37	=37
2E\	.	.	2gg#\	1ryy	2E\	-per.	2g#\	-per	4b\	-lo-
.	.	.	.	.	.	.	.	.	2ee\	.
*clefC1	*	*	*	*	*	*	*	*	*	*
!LO:TX:a:t=P:problem:znaki po kluczu cc# f# g#	!	!	!	!	!	!	!	!	!	!
4ee`\	.	.	4ee\	.	2r	.	2r	.	.	.
4a`	.	.	4a/	.	.	.	.	.	4dd#X\	.
=38	=38	=38	=38	=38	=38	=38	=38	=38	=38	=38
4.ff#\	.	.	4.ff#\	1ryy	00r	.	1r	.	8ee\	-rum
.	.	.	.	.	.	.	.	.	8b\L	a-
.	.	.	.	.	.	.	.	.	8cc#\	.
16ee\LL	.	.	16ee\LL	.	.	.	.	.	8dd\J	.
16dd\JJ	.	.	16dd\JJ	.	.	.	.	.	.	.
8cc#\L	.	.	8cc#\L	.	.	.	.	.	16ee\LL	.
.	.	.	.	.	.	.	.	.	16dd\JJ	.
8b\	.	.	8b\	.	.	.	.	.	8ee\	-men
8cc#\	.	.	8cc#\	.	.	.	.	.	4r	.
8a\J	.	.	8a\J	.	.	.	.	.	.	.
=39	=39	=39	=39	=39	=39	=39	=39-zz	=39	=39	=39
!	!	!	!	!	!	!	!LO:TX:a:t=P:problem:brak kreski taktowej	!	!	!
2b\	.	.	2b\	1ryy	.	.	2r	.	8r	.
.	.	.	.	.	.	.	.	.	8a\L	a-
.	.	.	.	.	.	.	.	.	8b\J	.
.	.	.	.	.	.	.	.	.	8cc#\	-men
*clefC3	*	*	*	*	*	*	*	*	*	*
!LO:TX:a:t=P:problem:znaki po kluczu f# c# g#	!	!	!	!	!	!	!	!	!	!
4a\	.	.	4a/	.	.	.	4a\	&	16dd\LL	a-
.	.	.	.	.	.	.	.	.	16cc#\JJ	.
.	.	.	.	.	.	.	.	.	8dd\	-men
4e\	.	.	8r	.	.	.	4e\	in	4r	.
.	.	.	8cc#\	.	.	.	.	.	.	.
=40	=40	=40	=40	=40	=40	=40	=40	=40	=40	=40
4.cc#\	.	.	8a\L	1ryy	.	.	4.cc#\	sae-	8r	.
.	.	.	8cc#\J	.	.	.	.	.	8b\L	a-
.	.	.	8ee\L	.	.	.	.	.	8cc#\J	.
16b\LL	.	.	16dd\L	.	.	.	16b\	-cu-	8dd\	-men
16a\JJ	.	.	16cc#\JJ	.	.	.	16a\	-la	.	.
!	!	!	!	!	!	!	!	!	!LO:LB:g=original	!
8g#\L	3	.	4b\	.	.	.	8g#\	sae-	16ee\LL	a-
.	.	.	.	.	.	.	.	.	16dd\JJ	.
8f#\	.	.	.	.	.	.	8f#\	-cu-	8ee\	-men
8g#\	6	.	[4ee\	.	.	.	8g#\	-lo-	4r	.
8e\J	.	.	.	.	.	.	8e\	-rum	.	.
=41	=41	=41	=41	=41	=41	=41	=41	=41	=41	=41
2f#\	7	.	4ee\]	1ryy	.	.	2f#\	a-	4r	.
!	!	!	!LO:LB:g=original	!	!	!	!	!	!	!
.	6|	.	4dd\	.	.	.	.	.	16ff#\LL	a-
.	.	.	.	.	.	.	.	.	16ee\JJ	.
.	.	.	.	.	.	.	.	.	8ff#\	-men
*clefC4	*	*	*	*	*	*	*	*	*	*
!LO:TX:a:t=P:problem: znaki po kluczu c# F# G#	!	!	!	!	!	!	!	!	!	!
4d\	.	.	8ee\L	.	.	.	4e\	-men	4r	.
.	.	.	8ee\	.	.	.	.	.	.	.
!	!	!	!	!	!	!	!LO:LB:g=original	!	!	!
4A\	.	.	8cc#\	.	.	.	8r	.	16ee\LL	a-
.	.	.	.	.	.	.	.	.	16dd\JJ	.
.	.	.	8ee\J	.	.	.	8a\	a-	8ee\	-men
!LO:LB:g=original	!	!	!	!	!	!	!	!	!	!
=42	=42	=42	=42	=42	=42	=42	=42	=42	=42	=42
4.f#\	3	.	8a\L	1ryy	1r	.	8d\L	.	4r	.
.	6	.	8dd\J	.	.	.	8f#\J	.	.	.
*	*	*	*	*	*	*	*	*	*	*ij
.	.	.	8ff#\L	.	.	.	8a\L	.	16a\LL	a-
.	.	.	.	.	.	.	.	.	16g#\JJ	.
16e#\LL	.	.	8bb\J	.	.	.	16g#\L	.	8a\	-men
16d\JJ	.	.	.	.	.	.	16f#\JJ	.	.	.
8c#\L	6	.	8aa\L	.	.	.	4e\	.	4r	.
8B\	.	.	8ee\J	.	.	.	.	.	.	.
8c#\	.	.	[4aa\	.	.	.	4a\	-men	16dd\LL	a-
.	.	.	.	.	.	.	.	.	16cc#\JJ	.
8A\J	.	.	.	.	.	.	.	.	8dd\	-men
*	*	*	*	*	*	*	*	*	*	*Xij
=43	=43	=43	=43	=43	=43-zz	=43	=43	=43	=43	=43
2B\	7	.	4aa\]	1ryy	2r	.	4a\	a-	4r	.
.	6	.	4gg#\	.	.	.	4g#\	.	16g#\LL	a-
.	.	.	.	.	.	.	.	.	16f#\	.
.	.	.	.	.	.	.	.	.	16g#\	.
.	.	.	.	.	.	.	.	.	16a\JJ	.
*clefF4	*	*	*	*	*	*	*	*	*	*
!LO:TX:a:t=P:problem:znaki po kluczu F# C# G#	!	!	!	!	!	!	!	!	!	!
4A\	.	.	8aa\L	.	4A\	Et	4a\	-men	4b\	.
.	.	.	8ee\	.	.	.	.	.	.	.
4E\	.	.	8gg#\	.	4E\	in	8g#\	a-	8cc#\	.
.	.	.	8ee\J	.	.	.	8g#\	-men	16b\LL	-men
.	.	.	.	.	.	.	.	.	16a\JJ	.
=44	=44	=44	=44	=44	=44	=44	=44	=44	=44	=44
4.c#\	3	.	4.aa\	1ryy	4.c#\	sae-	8a\L	a-	2b\	a-
.	6	.	.	.	.	.	8e\J	.	.	.
.	.	.	.	.	.	.	8a\L	.	.	.
16B\LL	.	.	16bb\LL	.	16B\LL	-cu-	16g#\L	.	.	.
16A\JJ	.	.	16ccc#\JJ	.	16A\JJ	-la	16a\JJ	.	.	.
8G#\L	6	.	8bb\L	.	8G#\	sae-	8b\L	.	2a\	-men
8F#\	.	.	8ccc#\	.	8F#\	-cu-	8a\	.	.	.
8G#\	.	.	8bb\	.	8G#\	-lo-	8b\	.	.	.
8E\J	.	.	8gg#\J	.	8E\	-rum	8g#\J	.	.	.
=45	=45	=45	=45	=45	=45	=45	=45	=45	=45	=45
!	!	!	!	!	!	!	!	!	!LO:TX:a:t=P:problem:brak taktów 45-52	!
2F#\	7	.	2aa\	1ryy	2F#\	a-	2a\	.	1ryy	.
.	6|	.	.	.	.	.	.	.	.	.
4E\	.	.	4gg#\	.	4E\	-men	8g#\	-men	.	.
.	.	.	.	.	.	.	8g#\L	a-	.	.
4r	.	.	4r	.	4r	.	8a\	.	.	.
.	.	.	.	.	.	.	8b\J	.	.	.
=46	=46	=46	=46	=46	=46	=46	=46	=46	=46	=46
8r	.	.	8r	1ryy	8r	.	16cc#\LL	.	1ryy	.
.	.	.	.	.	.	.	16b\JJ	.	.	.
8C#\L	.	.	8ee\L	.	8C#\L	a-	8cc#\	-men	.	.
8D\	.	.	8ff#\	.	8D\	.	4r	.	.	.
8E\J	.	.	8gg#\J	.	8E\J	.	.	.	.	.
!	!	!	!	!	!LO:LB:g=original	!	!LO:LB:g=original	!	!	!
16F#\LL	.	.	16aa\LL	.	16F#\LL	.	8r	.	.	.
16E\J	.	.	16gg#\J	.	16E\JJ	.	.	.	.	.
8F#\J	.	.	8aa\J	.	8F#\	-men	8f#\L	a-	.	.
4r	.	.	4r	.	4r	.	8g#\J	.	.	.
.	.	.	.	.	.	.	8a\	-men	.	.
=47	=47	=47	=47	=47	=47-zz	=47	=47	=47	=47	=47
!	!	!	!	!	!LO:TX:a:t=P:problem:brak kreski taktowej	!	!	!	!	!
*	*	*	*	*	*	*	*	*ij	*	*
8r	.	.	8r	1ryy	8r	.	16b\LL	a-	1ryy	.
.	.	.	.	.	.	.	16a\JJ	.	.	.
8BB/L	.	.	8dd\L	.	8BB/L	a-	8b\	-men	.	.
*	*	*	*	*	*	*	*	*Xij	*	*
8C#/	.	.	8ee\	.	8C#/J	.	4r	.	.	.
8D/J	.	.	8ff#\J	.	8D\	-men	.	.	.	.
!	!	!	!LO:LB:g=original	!	!LO:TX:a:t=P:problem:nieprawidłowa kreska taktowa	!	!	!	!	!
16E\LL	.	.	16gg#\LL	.	16E\LL	a-	8r	.	.	.
16D\J	.	.	16ff#\J	.	16D\JJ	.	.	.	.	.
8E\J	.	.	8gg#\J	.	8E\	-men	8g#\L	a-	.	.
4r	.	.	4r	.	4r	.	8a\J	.	.	.
.	.	.	.	.	.	.	8b\	-men	.	.
!LO:LB:g=original	!	!	!	!	!	!	!	!	!	!
=48	=48	=48	=48	=48	=48	=48	=48	=48	=48	=48
*	*	*	*	*	*	*	*	*ij	*	*
8r	.	.	8r	1ryy	8r	.	16cc#\LL	a-	1ryy	.
.	.	.	.	.	.	.	16b\JJ	.	.	.
8AA/L	.	.	8aa\L	.	8AA/L	a-	8cc#\	-men	.	.
*	*	*	*	*	*	*	*	*Xij	*	*
8BB/	.	.	8gg#\	.	8BB/J	.	4r	.	.	.
8C#/J	.	.	8aa\J	.	8C#/	-men	.	.	.	.
!	!	!	!	!	!LO:TX:a:t=P:problem:nieprawidłowa kreska taktowa	!	!	!	!	!
16D/LL	.	.	16ff#\LL	.	16D/LL	a-	2r	.	.	.
16C#/J	.	.	16ee\J	.	16C#/JJ	.	.	.	.	.
8D/J	.	.	8ff#\J	.	8D/	-men	.	.	.	.
4r	.	.	4r	.	4r	.	.	.	.	.
=49	=49	=49	=49	=49	=49	=49	=49	=49	=49	=49
16G#\LL	7	.	16bb\LL	1ryy	16G#\LL	a-	16b\LL	a-	1ryy	.
16F#\J	.	.	16aa\J	.	16F#\JJ	.	16a\JJ	.	.	.
8G#\J	.	.	8bb\J	.	8G#\	-men	8b\	-men	.	.
4r	.	.	4r	.	4r	.	4r	.	.	.
!	!	!	!	!	!LO:TX:a:t=P:problem:nieprawidłowa kreska taktowa	!	!	!	!	!
16C#/LL	7	.	16ee\LL	.	16C#/LL	a-	16e\LL	a-	.	.
16BB/J	.	.	16dd\J	.	16BB/JJ	.	16d\JJ	.	.	.
8C#/J	.	.	8ee\J	.	8C#/	-men	8e\	-men	.	.
4r	.	.	4r	.	4r	.	4r	.	.	.
=50	=50	=50	=50	=50	=50	=50	=50	=50	=50	=50
16F#\LL	7	.	16aa\LL	1ryy	16F#\LL	a-	16a\LL	a-	1ryy	.
16E\J	.	.	16gg#\J	.	16E\JJ	.	16g#\JJ	.	.	.
8F#\J	.	.	8aa\J	.	8F#\	-men	8a\	-men	.	.
4r	.	.	4r	.	4r	.	4r	.	.	.
!	!	!	!	!	!LO:TX:a:t=P:problem:nieprawidłowa kreska taktowa	!	!	!	!	!
16BB/LL	7	.	16dd\LL	.	16BB/LL	a-	16d\LL	a-	.	.
16AA/J	.	.	16cc#\J	.	16AA/JJ	.	16c#\JJ	.	.	.
8BB/J	.	.	8dd\J	.	8BB/	-men	8d\	-men	.	.
4r	.	.	4r	.	4r	.	4r	.	.	.
=51	=51	=51	=51	=51	=51	=51	=51	=51	=51	=51
2E\	3	.	4gg#\	1ryy	8r	.	4g#\	a	1ryy	.
.	4	.	.	.	4E\	a-	.	.	.	.
.	_	.	[<4aa\	.	.	.	[4a\	.	.	.
.	.	.	.	.	8E\	-men	.	.	.	.
!	!	!	!	!	!LO:TX:a:t=P:problem:brak taktu 52	!	!LO:LB:g=original	!	!	!
!	!	!	!	!	!	!	!LO:TX:a:t=P:problem:brak zakończenia ligatury przy 8a	!	!	!
2E\	4	.	8aa\L]	.	2ryy	.	8a\L]	.	.	.
.	3	.	16gg#\L	.	.	.	8g#\J	.	.	.
.	.	.	16ff#\JJ	.	.	.	.	.	.	.
!	!	!	!	!	!	!	!LO:N:vis=4	!	!	!
.	.	.	4gg#\	.	.	.	8f#\	.	.	.
!	!	!	!	!	!	!	!LO:N:vis=4	!	!	!
.	.	.	.	.	.	.	8g#\	.	.	.
=52	=52	=52	=52	=52	=52	=52	=52	=52	=52	=52
1AA	.	.	1aa	1ryy	1ryy	.	1a	.	1ryy	.
==	==	==	==	==	==	==	==	==	==	==
*-	*-	*-	*-	*-	*-	*-	*-	*-	*-	*-
!!!system-decoration: [(g1)][(g2)][(g3)]
!!!RDF**kern: >= above
!!!RDF**kern: <= below
!!!ENC:Anna Matuszewska
!!!END:2021-01-02
!!!ENC: Marcin Jachim
!!!END: 2020-07-02
